X:1
T:Title
%%score 1 2
L:1/8
Q:1/4=107
M:4/4
K:E
V:1 treble nm="Grand Piano, Soprano"
V:2 bass nm="Choir Pad, Brasília, Robert Lowry"
V:1
 [EG]2 [EG]2 [EG]2 [GB]2 | [GB]2 [FA][EG] [FA]2 [DF]2 | [DF]2 [DF]2 [DF][EG][FA][GB] | %3
w: By~Robert~Lowry,~1873 * * *|||
 [Ac]2 [GB]2 [GB]4 | [EG]2 [EG]2 [EG]2 [GB]2 | [GB]2 [FA][EG] [FA]2 [DF]2 | %6
w: |||
 [DF][EG][FA][GB] [Ac]2 [DB]2 | E6 z2 | [Ac]2 [Ac]2 [Ac][Bd][ce][Ac] | [GB]2 [GB]2 [GB]2 [EG]2 | %10
w: ||||
 [DF]2 [DF]2 [DF][EG][FA][GB] | [Ac]2 [GB]2 [GB]4 | [Ac]2 [Ac]2 [Ac][Bd][ce][Ac] | %13
w: |||
 [GB]2 [GB]2 [GB]2 [EG]2 | [DF][EG][FA][GB] [Ac]2 [DB]2 | E8 |] %16
w: |||
V:2
 [E,B,]2 [E,B,]2 [E,B,]2 [E,E]2 | [E,E]2 [E,B,]2 [B,,B,]2 [B,,B,]2 | %2
 [B,,B,]2 [B,,B,]2 [B,,B,]2 [B,,B,]2 | [E,B,]2 [E,E]2 [E,E]4 | [E,B,]2 [E,B,]2 [E,B,]2 [E,E]2 | %5
 [E,E]2 [E,B,]2 [B,,B,]2 [B,,B,]2 | [B,,B,][B,,B,][B,,B,][B,,B,] [B,,B,]2 [B,,B,]2 | [E,G,]6 z2 | %8
 [A,E]2 [A,E]2 [A,E]2 [A,E]2 | [E,E]2 [E,E]2 [E,E]2 [E,B,]2 | [B,,B,]2 [B,,B,]2 [B,,B,]2 [B,,B,]2 | %11
 [E,B,]2 [E,E]2 [E,E]4 | [A,E]2 [A,E]2 [A,E][A,E][A,E][A,E] | [E,E]2 [E,E]2 [E,E]2 [E,B,]2 | %14
 [B,,B,][B,,B,][B,,B,][B,,B,] [B,,B,]2 [B,,B,]2 | [E,G,]8 |] %16

